kora/actions/scalable/office-chart-area-stacked.svg

<svg xmlns="http://www.w3.org/2000/svg" width="16" height="16" viewBox="0 0 16 16">
 <defs>
  <style id="current-color-scheme" type="text/css">
   .ColorScheme-Text { color:#dfdfdf; } .ColorScheme-Highlight { color:#4285f4; }
  </style>
 </defs>
 <path style="fill:currentColor" class="ColorScheme-Text" d="M 2 2 L 2 4.9960938 L 1.0078125 4.9960938 L 1.0078125 5.0058594 L 2 5.0058594 L 2 14 L 14 14 L 14 13 L 3 13 L 3 5.0058594 L 7.46875 5.0058594 L 4.46875 8.0058594 L 3.0078125 8.0058594 L 3.0078125 9.0058594 L 4.8828125 9.0058594 L 9.0058594 4.8828125 L 11.128906 7.0058594 L 11.134766 7.0019531 L 11.138672 7.0058594 L 13.966797 4.1777344 C 13.969797 4.1827344 13.259766 3.4707031 13.259766 3.4707031 L 11.134766 5.5957031 L 9.0078125 3.4707031 L 9.0058594 3.4726562 L 9.0039062 3.4707031 L 7.4765625 4.9960938 L 3 4.9960938 L 3 2 L 2 2 z M 7.5996094 9 L 5.5996094 11 L 3.0058594 11 L 3.0058594 12 L 6.0058594 12 L 6.0058594 11.992188 L 6.0136719 12 L 8.0136719 10 L 9.6054688 10 L 11.605469 12 L 14.005859 12 L 14.005859 11 L 12.019531 11 L 10.019531 9 L 8.6054688 9 L 7.5996094 9 z"/>
 <path style="fill:currentColor;opacity:0.5" class="ColorScheme-Text" d="M 13.46,3.67 11.14,6.001 11.136,5.997 11.13,6.001 9.007,3.878 4.884,8.001 l -1.875,0 0,5 11,0 0,-8.778 z"/>
</svg>

<svg xmlns="http://www.w3.org/2000/svg" style="fill-rule:evenodd;clip-rule:evenodd;stroke-linejoin:round;stroke-miterlimit:2" width="100%" height="100%" version="1.1" viewBox="0 0 16 16" xml:space="preserve">
 <defs>
  <style id="current-color-scheme" type="text/css">
   .ColorScheme-Text { color:#dfdfdf; } .ColorScheme-Highlight { color:#4285f4; } .ColorScheme-NeutralText { color:#ff9800; } .ColorScheme-PositiveText { color:#4caf50; } .ColorScheme-NegativeText { color:#f44336; }
  </style>
 </defs>
 <path style="fill:currentColor;fill-opacity:0.1;" class="ColorScheme-Text" d="M13.46,3.67l-2.32,2.331l-0.004,-0.004l-0.006,0.004l-2.123,-2.123l-4.123,4.123l-1.875,0l-0,5l11,0l0,-8.778l-0.549,-0.553Z"/>
 <path style="fill:currentColor;fill-opacity:0.3" class="ColorScheme-Text" d="M3,2l0,11l11,0l0,1l-12,0l0,-12l1,0Z"/>
 <path style="fill:currentColor;" class="ColorScheme-Text" d="M7.6,9l-2,2l-2.594,0l-0,1l3,0l-0,-0.008l0.008,0.008l2,-2l1.591,0l2,2l2.401,0l-0,-1l-1.986,0l-2,-2l-2.42,0Zm-3.131,-0.994l4.535,-4.535l0.002,0.002l0.002,-0.002l2.127,2.125l2.125,-2.125c-0,-0 0.702,0.704 0.707,0.707l-2.828,2.828l-0.004,-0.004l-0.006,0.004l-2.123,-2.123l-4.123,4.123l-1.875,-0l-0,-1l1.461,-0Z"/>
</svg>
